cmd/conneroh/_static/dist/svg/castle.svg

<svg height="18" viewBox="0 0 18 18" width="18" xmlns="http://www.w3.org/2000/svg"><g fill="none" stroke="#fff" stroke-linecap="round" stroke-linejoin="round" stroke-width="2" transform="scale(.75)"><path d="m22 20v-9h-20v9c0 1.104167.895833 2 2 2h16c1.104167 0 2-.895833 2-2m-4-9v-7h-12v7"/><path d="m15 22v-4c0-1.65625-1.34375-3-3-3s-3 1.34375-3 3v4m13-11v-2m-20 2v-2m4-5v-2m12 2v-2m-8 2v-2m4 2v-2"/></g></svg>

<svg xmlns="http://www.w3.org/2000/svg" width="24" height="24" fill="none" stroke="white" stroke-linecap="round" stroke-linejoin="round" stroke-width="2">
    <path d="M22 20v-9H2v9a2 2 0 0 0 2 2h16a2 2 0 0 0 2-2m-4-9V4H6v7"/>
    <path d="M15 22v-4a3 3 0 0 0-3-3 3 3 0 0 0-3 3v4m13-11V9M2 11V9m4-5V2m12 2V2m-8 2V2m4 2V2"/>
</svg>
